ncols 100
nrows 100
xllcorner 274186
yllcorner 1268760
cellsize 4
NODATA_value -9999
19.63 19.57 19.74 19.82 19.86 19.95 19.90 19.93 20.01 20.03 20.20 20.20 20.10 20.23 20.32 20.25 20.45 20.41 20.43 20.52 20.53 20.68 20.70 20.70 20.73 20.83 20.81 20.92 20.93 21.03 21.11 21.10 21.16 21.22 21.30 21.34 21.38 21.42 21.39 21.39 21.48 21.76 21.64 21.65 21.76 21.78 21.86 21.91 21.88 21.93 22.07 22.02 22.13 22.13 22.23 22.30 22.27 22.41 22.36 22.41 22.48 22.55 22.55 22.49 22.65 22.75 22.81 22.84 23.02 22.96 22.93 23.02 23.09 23.15 23.21 23.24 23.24 23.39 23.42 23.41 23.43 23.54 23.55 23.55 23.69 23.69 23.85 23.62 23.90 23.86 23.89 24.01 24.18 24.02 24.18 24.23 24.25 24.24 24.31 24.48
19.59 19.66 19.73 19.79 19.88 19.93 19.88 19.88 20.01 19.96 20.03 20.11 20.12 20.19 20.30 20.35 20.39 20.38 20.53 20.56 20.46 20.60 20.71 20.69 20.81 20.81 20.98 20.89 20.91 21.00 21.01 21.08 21.11 21.14 21.29 21.29 21.35 21.30 21.50 21.38 21.51 21.58 21.54 21.75 21.68 21.73 21.82 21.90 21.93 21.91 22.01 22.05 22.14 22.20 22.19 22.26 22.34 22.34 22.40 22.49 22.49 22.54 22.54 22.60 22.67 22.77 22.70 22.80 22.88 22.95 22.97 22.98 23.09 23.11 23.18 23.16 23.26 23.28 23.32 23.33 23.38 23.40 23.60 23.55 23.73 23.59 23.72 23.84 23.76 23.81 23.94 23.99 24.02 24.02 24.10 24.26 24.27 24.26 24.26 24.33
19.66 19.69 19.60 19.69 19.80 19.92 19.80 19.92 20.04 20.07 19.99 20.08 20.18 20.18 20.29 20.30 20.42 20.32 20.43 20.57 20.49 20.63 20.61 20.67 20.81 20.84 20.89 20.82 20.95 21.00 21.08 21.14 21.02 21.16 21.23 21.30 21.30 21.34 21.42 21.48 21.61 21.53 21.63 21.62 21.80 21.71 21.81 21.91 21.84 21.88 22.02 22.00 22.16 22.09 22.13 22.18 22.28 22.22 22.38 22.44 22.38 22.49 22.53 22.68 22.66 22.70 22.72 22.85 22.89 22.82 22.98 23.04 23.05 23.14 23.17 23.11 23.20 23.29 23.32 23.33 23.36 23.41 23.42 23.56 23.60 23.60 23.74 23.71 23.73 23.79 23.85 23.97 23.96 24.06 24.09 24.21 24.19 24.20 24.15 24.33
19.61 19.61 19.66 19.73 19.75 19.84 19.81 19.89 19.92 20.05 20.13 20.18 20.12 20.19 20.27 20.28 20.28 20.39 20.42 20.43 20.55 20.57 20.56 20.67 20.78 20.83 20.86 20.87 20.94 20.96 21.02 21.03 21.17 21.13 21.28 21.15 21.28 21.35 21.44 21.49 21.48 21.58 21.63 21.63 21.72 21.66 21.75 21.87 21.87 21.94 21.93 22.02 22.01 22.04 22.11 22.27 22.23 22.33 22.28 22.38 22.49 22.50 22.55 22.47 22.78 22.70 22.66 22.77 22.78 22.90 22.88 22.99 23.04 23.04 23.15 23.17 23.18 23.26 23.31 23.35 23.41 23.44 23.56 23.56 23.65 23.71 23.70 23.79 23.79 23.82 23.95 23.97 23.99 24.00 24.10 24.16 24.16 24.23 24.29 24.24
19.64 19.64 19.55 19.76 19.78 19.76 19.79 19.89 19.90 20.00 20.11 20.01 20.13 20.26 20.33 20.29 20.29 20.40 20.38 20.43 20.58 20.58 20.64 20.61 20.70 20.74 20.77 20.89 20.92 20.92 21.06 21.04 21.04 21.13 21.21 21.25 21.28 21.39 21.42 21.36 21.43 21.70 21.67 21.55 21.79 21.69 21.75 21.80 21.88 21.99 22.04 22.08 22.09 22.12 22.14 22.16 22.35 22.27 22.26 22.45 22.40 22.50 22.55 22.50 22.62 22.70 22.66 22.80 22.82 22.87 22.97 22.98 22.96 23.01 23.15 23.14 23.20 23.22 23.33 23.33 23.36 23.46 23.51 23.67 23.53 23.69 23.65 23.73 23.82 23.84 23.94 23.94 23.96 24.01 23.90 24.07 24.18 24.25 24.29 24.33
19.52 19.70 19.51 19.70 19.66 19.79 19.87 19.84 19.86 19.91 20.00 19.98 20.20 20.15 20.29 20.23 20.35 20.36 20.41 20.43 20.59 20.54 20.62 20.68 20.70 20.72 20.71 20.86 20.85 20.94 21.04 21.10 21.11 21.15 21.23 21.27 21.36 21.30 21.43 21.41 21.54 21.50 21.52 21.66 21.72 21.76 21.73 21.84 21.93 21.93 21.95 22.01 22.07 22.15 22.19 22.15 22.13 22.32 22.25 22.35 22.35 22.53 22.46 22.53 22.65 22.69 22.63 22.68 22.84 22.92 22.93 22.97 22.95 23.14 23.03 23.20 23.16 23.20 23.28 23.29 23.38 23.48 23.51 23.54 23.56 23.64 23.76 23.62 23.79 23.81 23.91 23.77 23.96 24.00 23.97 24.10 24.13 24.20 24.27 24.24
19.50 19.59 19.75 19.72 19.67 19.84 19.81 19.84 19.90 19.97 20.03 19.96 20.11 20.20 20.18 20.30 20.30 20.30 20.46 20.41 20.48 20.57 20.62 20.67 20.78 20.75 20.74 20.84 20.88 20.91 20.97 21.04 21.18 21.06 21.14 21.29 21.40 21.42 21.46 21.50 21.54 21.52 21.57 21.56 21.62 21.71 21.74 21.78 21.77 21.95 21.89 22.06 21.99 22.15 22.15 22.02 22.18 22.21 22.37 22.37 22.40 22.46 22.46 22.56 22.53 22.60 22.75 22.71 22.69 22.86 22.89 22.85 22.96 23.02 22.97 23.14 23.06 23.22 23.27 23.36 23.38 23.47 23.48 23.53 23.57 23.63 23.71 23.73 23.75 23.79 23.77 23.90 24.01 23.88 24.09 24.07 24.11 24.20 24.41 24.36
19.50 19.55 19.44 19.65 19.77 19.65 19.83 19.88 19.95 19.83 20.07 20.04 20.09 20.11 20.17 20.30 20.27 20.24 20.36 20.33 20.50 20.57 20.50 20.59 20.69 20.76 20.81 20.76 20.80 20.94 21.02 20.96 21.05 21.09 21.19 21.22 21.31 21.36 21.44 21.44 21.47 21.55 21.55 21.61 21.68 21.63 21.81 21.85 21.76 21.90 21.90 21.94 21.99 21.97 22.14 22.22 22.19 22.20 22.24 22.34 22.40 22.37 22.49 22.46 22.56 22.56 22.55 22.67 22.84 22.84 22.93 22.94 22.99 22.96 23.12 23.06 23.22 23.30 23.29 23.25 23.39 23.36 23.52 23.52 23.53 23.58 23.61 23.68 23.71 23.70 23.70 23.95 23.97 23.98 24.04 23.91 24.05 24.18 24.16 24.23
19.57 19.56 19.57 19.64 19.65 19.70 19.75 19.77 19.85 19.97 19.96 20.06 20.16 20.16 20.04 20.19 20.30 20.38 20.31 20.55 20.43 20.58 20.57 20.64 20.66 20.69 20.75 20.87 20.85 20.95 20.96 21.10 21.07 21.25 21.21 21.13 21.28 21.34 21.40 21.42 21.54 21.52 21.60 21.59 21.62 21.67 21.71 21.76 21.83 21.82 21.95 22.04 22.07 22.04 22.00 22.17 22.21 22.27 22.25 22.31 22.40 22.35 22.41 22.48 22.54 22.61 22.69 22.68 22.72 22.80 22.84 22.87 22.97 22.93 23.06 23.12 23.14 23.22 23.26 23.39 23.36 23.30 23.40 23.43 23.56 23.54 23.54 23.69 23.64 23.72 23.80 23.89 23.90 23.92 24.05 24.04 24.10 24.08 24.11 24.22
19.55 19.60 19.54 19.54 19.69 19.71 19.70 19.80 19.86 19.96 19.98 20.07 20.04 20.15 20.10 20.17 20.30 20.38 20.34 20.35 20.53 20.49 20.56 20.63 20.78 20.74 20.84 20.86 20.86 20.99 21.03 21.07 21.10 21.26 21.23 21.29 21.30 21.35 21.34 21.47 21.52 21.51 21.60 21.48 21.70 21.67 21.70 21.74 21.76 21.84 21.92 21.91 22.00 22.03 22.02 22.12 22.20 22.25 22.18 22.33 22.32 22.37 22.41 22.54 22.49 22.54 22.72 22.64 22.73 22.81 22.82 22.92 22.92 23.02 23.04 23.09 23.11 23.15 23.23 23.27 23.33 23.39 23.39 23.43 23.50 23.58 23.60 23.67 23.74 23.81 23.83 23.92 23.94 23.85 23.96 24.04 24.16 24.11 24.10 24.21
19.47 19.49 19.59 19.59 19.66 19.65 19.73 19.86 19.86 19.83 19.84 20.03 20.00 20.10 20.10 20.24 20.26 20.25 20.34 20.37 20.45 20.51 20.58 20.62 20.79 20.70 20.76 20.75 20.89 20.99 20.98 21.10 21.19 21.21 21.25 21.31 21.40 21.39 21.46 21.48 21.51 21.48 21.52 21.58 21.73 21.66 21.71 21.78 21.77 21.76 21.90 22.01 21.96 21.95 22.08 22.00 22.18 22.16 22.24 22.37 22.34 22.39 22.46 22.56 22.49 22.61 22.62 22.61 22.70 22.70 22.77 22.84 22.98 22.93 23.04 23.10 23.12 23.14 23.17 23.28 23.34 23.33 23.31 23.45 23.51 23.52 23.56 23.64 23.66 23.69 23.78 23.83 23.87 23.97 23.93 23.96 24.06 24.24 24.11 24.26
19.48 19.40 19.58 19.59 19.68 19.64 19.79 19.79 19.87 19.98 19.95 20.00 20.13 19.99 20.19 20.12 20.30 20.21 20.22 20.43 20.39 20.51 20.53 20.57 20.68 20.74 20.72 20.88 20.94 21.01 21.03 21.14 21.19 21.26 21.30 21.34 21.33 21.48 21.43 21.43 21.42 21.53 21.63 21.64 21.59 21.68 21.80 21.82 21.79 21.84 21.97 21.98 21.92 21.83 22.00 22.13 22.10 22.21 22.22 22.27 22.30 22.37 22.42 22.44 22.45 22.48 22.64 22.59 22.64 22.81 22.83 22.73 22.82 22.88 22.97 23.11 23.13 23.16 23.21 23.25 23.34 23.29 23.44 23.47 23.48 23.43 23.61 23.70 23.69 23.77 23.91 23.85 23.82 23.95 23.89 23.99 23.99 24.08 24.12 24.23
19.41 19.38 19.44 19.68 19.67 19.70 19.76 19.66 19.81 19.86 19.88 20.01 20.02 20.14 20.13 20.14 20.24 20.22 20.53 20.33 20.42 20.48 20.68 20.63 20.72 20.73 20.87 20.84 20.92 21.05 21.08 21.21 21.20 21.27 21.32 21.33 21.39 21.35 21.50 21.53 21.64 21.58 21.57 21.61 21.72 21.70 21.75 21.71 21.78 21.82 21.83 21.91 21.96 22.03 21.99 22.05 22.13 22.18 22.18 22.27 22.31 22.37 22.40 22.45 22.53 22.61 22.62 22.70 22.69 22.83 22.72 22.83 22.92 22.86 22.86 23.07 23.13 23.21 23.29 23.27 23.25 23.31 23.41 23.37 23.43 23.47 23.55 23.55 23.63 23.76 23.81 23.82 23.89 23.94 24.03 24.02 23.97 24.13 24.10 24.18
19.38 19.41 19.54 19.52 19.69 19.76 19.68 19.77 19.82 19.75 19.93 20.02 20.06 20.06 20.09 20.13 20.21 20.29 20.28 20.39 20.43 20.44 20.60 20.72 20.74 20.80 20.85 20.93 20.95 21.09 21.13 21.26 21.09 21.21 21.27 21.33 21.46 21.50 21.51 21.51 21.55 21.59 21.59 21.70 21.81 21.79 21.85 21.80 21.77 21.85 21.88 21.88 22.00 21.99 22.01 22.11 22.07 22.18 22.24 22.30 22.36 22.43 22.39 22.45 22.47 22.54 22.60 22.70 22.75 22.70 22.73 22.87 22.80 22.90 23.06 23.04 23.03 23.11 23.14 23.24 23.19 23.23 23.37 23.33 23.41 23.60 23.52 23.55 23.58 23.65 23.69 23.74 23.87 23.85 23.85 23.92 24.03 24.11 24.07 24.19
19.43 19.51 19.48 19.52 19.61 19.57 19.70 19.78 19.75 19.91 19.82 20.01 19.98 19.98 20.06 20.12 20.27 20.24 20.37 20.36 20.51 20.56 20.71 20.69 20.83 20.88 20.98 20.99 21.01 21.07 21.13 21.27 21.24 21.26 21.37 21.42 21.44 21.60 21.49 21.53 21.52 21.70 21.78 21.65 21.71 21.82 21.82 21.80 21.83 21.70 22.03 21.96 22.00 22.02 22.12 22.03 22.13 22.15 22.17 22.35 22.26 22.36 22.45 22.46 22.49 22.48 22.61 22.63 22.69 22.70 22.73 22.86 22.87 22.97 22.98 22.99 23.09 23.06 23.22 23.20 23.23 23.30 23.41 23.35 23.52 23.44 23.48 23.57 23.57 23.67 23.74 23.79 23.75 23.94 23.94 23.97 24.00 24.12 24.09 24.13
19.33 19.38 19.50 19.49 19.66 19.65 19.64 19.69 19.81 19.86 19.88 19.97 19.94 20.04 20.04 20.22 20.21 20.36 20.33 20.37 20.52 20.56 20.69 20.78 20.78 20.95 21.05 21.01 21.08 21.13 21.18 21.28 21.39 21.43 21.55 21.53 21.61 21.59 21.66 21.64 21.65 21.62 21.72 21.70 21.88 21.82 21.78 21.91 21.98 21.89 21.88 21.99 22.06 22.02 22.04 22.06 22.14 22.17 22.19 22.20 22.33 22.28 22.37 22.45 22.42 22.54 22.60 22.61 22.66 22.65 22.75 22.71 22.81 22.88 22.91 23.04 23.08 23.08 23.20 23.09 23.18 23.29 23.32 23.29 23.47 23.45 23.49 23.56 23.68 23.64 23.64 23.70 23.85 23.84 23.93 23.88 23.94 24.03 24.01 24.02
19.41 19.45 19.46 19.49 19.61 19.68 19.71 19.79 19.74 19.84 19.82 19.82 19.95 20.06 20.13 20.18 20.24 20.26 20.25 20.40 20.58 20.66 20.64 20.83 20.83 20.99 21.00 21.17 21.22 21.29 21.39 21.40 21.50 21.57 21.56 21.67 21.69 21.73 21.73 21.79 21.82 21.78 21.88 21.78 21.80 21.88 21.83 21.87 21.87 21.99 21.90 21.92 21.94 22.10 22.07 22.10 22.19 22.16 22.10 22.23 22.26 22.42 22.37 22.38 22.42 22.47 22.44 22.56 22.60 22.58 22.72 22.78 22.78 22.88 22.93 22.94 23.04 22.94 23.20 23.17 23.27 23.32 23.18 23.39 23.40 23.42 23.49 23.53 23.53 23.69 23.69 23.83 23.79 23.73 23.99 23.89 23.92 24.01 23.97 24.25
19.41 19.38 19.55 19.44 19.55 19.59 19.65 19.66 19.80 19.76 19.91 19.97 19.96 20.00 20.16 20.02 20.24 20.28 20.46 20.46 20.53 20.57 20.65 20.88 20.90 21.03 21.11 21.25 21.26 21.35 21.50 21.45 21.64 21.72 21.74 21.76 21.83 21.86 21.91 21.91 21.97 21.88 21.89 21.87 21.99 21.95 21.84 21.94 21.91 21.93 22.03 22.03 22.00 21.97 22.07 22.16 22.09 22.26 22.10 22.29 22.20 22.27 22.29 22.45 22.49 22.42 22.51 22.56 22.62 22.70 22.77 22.74 22.75 22.92 22.95 22.94 23.08 23.09 23.11 23.19 23.26 23.23 23.24 23.35 23.41 23.43 23.44 23.47 23.57 23.66 23.64 23.77 23.81 23.78 23.86 23.92 23.97 24.03 24.08 24.23
19.37 19.38 19.37 19.49 19.48 19.61 19.71 19.70 19.78 19.74 19.87 19.83 20.00 20.02 20.20 20.17 20.22 20.33 20.42 20.50 20.66 20.66 20.80 20.83 20.97 21.10 21.14 21.33 21.39 21.49 21.55 21.68 21.76 21.80 21.82 21.85 21.95 21.98 21.92 22.04 22.09 22.06 22.01 21.97 22.00 21.96 22.11 21.94 22.00 21.99 22.03 22.04 21.97 22.06 21.99 22.05 22.20 22.18 22.18 22.18 22.20 22.27 22.34 22.31 22.41 22.53 22.52 22.57 22.65 22.61 22.65 22.85 22.69 22.90 22.89 22.94 23.03 23.04 23.06 23.15 23.17 23.27 23.34 23.30 23.30 23.36 23.53 23.48 23.52 23.57 23.66 23.74 23.72 23.81 23.77 23.86 23.86 23.96 24.05 24.12
19.28 19.34 19.41 19.41 19.52 19.59 19.61 19.69 19.79 19.71 19.78 19.93 19.90 19.98 20.18 20.29 20.25 20.28 20.44 20.51 20.69 20.80 20.94 20.98 21.17 21.25 21.34 21.43 21.53 21.58 21.72 21.89 21.88 22.02 22.07 22.15 22.14 22.18 22.07 22.22 22.17 22.19 22.17 22.17 22.16 22.11 22.12 22.12 22.07 22.11 22.04 22.02 22.02 22.07 22.08 22.10 21.99 22.14 22.12 22.27 22.21 22.33 22.34 22.40 22.47 22.46 22.45 22.53 22.66 22.56 22.65 22.74 22.72 22.80 22.89 22.89 23.04 22.98 23.02 23.11 23.06 23.29 23.19 23.26 23.35 23.32 23.47 23.52 23.56 23.49 23.70 23.68 23.74 23.78 23.91 23.79 24.00 23.98 23.94 24.13
19.25 19.36 19.38 19.51 19.42 19.56 19.66 19.63 19.63 19.78 19.80 19.98 19.95 20.07 20.09 20.18 20.21 20.38 20.52 20.66 20.68 20.88 21.04 21.05 21.20 21.34 21.50 21.58 21.73 21.88 21.90 22.04 22.08 22.19 22.22 22.28 22.45 22.44 22.44 22.44 22.44 22.34 22.30 22.24 22.25 22.18 22.11 22.25 22.15 22.06 22.06 22.06 21.97 22.03 22.05 22.07 22.09 22.17 22.17 22.19 22.22 22.27 22.42 22.41 22.44 22.42 22.47 22.44 22.60 22.48 22.74 22.71 22.70 22.86 22.85 22.86 22.95 22.94 23.02 23.12 23.19 23.11 23.24 23.32 23.40 23.43 23.44 23.44 23.39 23.62 23.64 23.66 23.80 23.76 23.76 23.90 23.85 23.98 23.95 24.04
19.27 19.31 19.33 19.34 19.51 19.52 19.64 19.75 19.71 19.65 19.84 19.98 20.05 20.10 20.15 20.20 20.34 20.45 20.59 20.73 20.78 20.91 21.00 21.25 21.35 21.49 21.69 21.82 21.95 22.04 22.02 22.24 22.30 22.40 22.56 22.51 22.60 22.65 22.65 22.55 22.53 22.49 22.49 22.42 22.38 22.34 22.26 22.32 22.17 22.19 22.16 22.14 22.17 22.13 22.17 22.09 22.12 22.18 22.12 22.08 22.11 22.25 22.27 22.37 22.41 22.29 22.45 22.46 22.59 22.59 22.63 22.70 22.75 22.90 22.87 22.90 22.93 22.93 22.97 23.03 23.10 23.13 23.17 23.27 23.14 23.31 23.41 23.37 23.54 23.53 23.53 23.68 23.71 23.69 23.86 23.84 23.83 23.99 24.00 24.07
19.28 19.36 19.39 19.36 19.51 19.53 19.51 19.71 19.75 19.79 19.84 19.84 19.96 20.14 20.17 20.33 20.44 20.49 20.65 20.69 20.91 20.97 21.20 21.31 21.37 21.68 21.79 21.99 22.16 22.26 22.39 22.47 22.65 22.73 22.72 22.79 22.77 22.85 22.79 22.74 22.77 22.67 22.69 22.64 22.69 22.47 22.41 22.33 22.32 22.18 22.19 22.19 22.19 22.10 22.12 22.01 22.10 22.17 22.14 22.26 22.23 22.21 22.26 22.29 22.33 22.48 22.46 22.63 22.52 22.65 22.58 22.62 22.73 22.72 22.80 22.77 22.98 22.96 23.12 23.03 23.11 23.12 23.19 23.22 23.25 23.39 23.40 23.44 23.58 23.62 23.63 23.68 23.68 23.71 23.81 23.80 23.91 23.96 23.94 24.11
19.29 19.32 19.40 19.28 19.45 19.51 19.60 19.61 19.68 19.81 19.79 19.97 19.99 20.16 20.22 20.27 20.40 20.54 20.64 20.83 20.97 21.13 21.34 21.49 21.68 21.84 22.01 22.15 22.31 22.59 22.76 22.86 22.96 22.98 23.10 23.11 23.16 23.12 23.18 23.10 23.07 23.02 22.82 22.79 22.72 22.73 22.54 22.42 22.34 22.42 22.33 22.24 22.21 22.20 22.18 22.04 22.15 22.17 22.17 22.10 22.24 22.27 22.23 22.33 22.33 22.32 22.45 22.39 22.52 22.57 22.56 22.67 22.77 22.75 22.81 22.81 22.89 22.96 22.94 23.07 23.10 23.14 23.11 23.24 23.23 23.33 23.37 23.45 23.50 23.61 23.54 23.70 23.69 23.70 23.78 23.73 23.92 23.86 23.92 23.93
19.27 19.24 19.33 19.33 19.50 19.55 19.59 19.61 19.65 19.76 19.81 19.93 19.97 20.05 20.21 20.45 20.50 20.54 20.76 20.88 21.06 21.23 21.41 21.59 21.79 22.03 22.25 22.38 22.70 22.78 22.94 23.13 23.26 23.29 23.35 23.53 23.47 23.42 23.48 23.35 23.37 23.27 23.19 23.03 22.87 22.89 22.79 22.63 22.53 22.56 22.33 22.32 22.26 22.22 22.25 22.09 22.14 22.20 22.20 22.19 22.31 22.27 22.25 22.26 22.34 22.41 22.42 22.49 22.51 22.53 22.53 22.65 22.69 22.69 22.81 22.80 22.89 22.93 23.02 23.02 23.09 23.18 23.21 23.23 23.34 23.30 23.34 23.38 23.47 23.47 23.54 23.54 23.68 23.73 23.72 23.84 23.83 23.90 23.91 24.02
19.29 19.28 19.42 19.40 19.52 19.49 19.51 19.66 19.69 19.81 19.83 19.94 20.03 20.11 20.21 20.32 20.50 20.70 20.81 21.01 21.18 21.37 21.51 21.86 22.07 22.24 22.46 22.64 22.95 23.14 23.26 23.46 23.66 23.72 23.81 23.73 23.80 23.87 23.77 23.71 23.76 23.54 23.44 23.37 23.17 23.06 22.91 22.73 22.72 22.54 22.42 22.40 22.37 22.34 22.35 22.24 22.14 22.26 22.22 22.16 22.08 22.24 22.20 22.30 22.32 22.33 22.39 22.44 22.46 22.53 22.56 22.58 22.65 22.76 22.79 22.85 22.92 22.86 22.92 22.94 23.04 23.03 23.10 23.20 23.26 23.38 23.32 23.36 23.41 23.54 23.59 23.52 23.59 23.61 23.73 23.77 23.74 23.84 23.98 23.94
19.22 19.23 19.35 19.33 19.46 19.45 19.55 19.68 19.70 19.74 19.84 19.84 20.05 20.19 20.36 20.30 20.58 20.70 20.89 21.11 21.34 21.53 21.78 21.99 22.32 22.50 22.73 23.03 23.17 23.37 23.66 23.77 23.94 24.03 24.17 24.18 24.22 24.28 24.16 24.06 24.01 23.84 23.70 23.56 23.31 23.19 23.18 22.92 22.80 22.67 22.55 22.41 22.36 22.36 22.28 22.32 22.10 22.28 22.20 22.08 22.17 22.25 22.26 22.28 22.34 22.31 22.42 22.41 22.42 22.50 22.62 22.66 22.71 22.72 22.71 22.66 22.83 22.93 22.84 22.97 23.08 23.09 23.17 23.27 23.28 23.31 23.27 23.48 23.44 23.44 23.58 23.64 23.58 23.68 23.70 23.70 23.76 23.77 23.87 23.97
19.12 19.30 19.34 19.30 19.33 19.43 19.45 19.52 19.71 19.87 19.81 19.93 20.10 20.13 20.32 20.50 20.59 20.83 21.02 21.30 21.41 21.66 21.97 22.11 22.39 22.74 23.07 23.27 23.60 23.86 24.02 24.11 24.38 24.45 24.52 24.54 24.60 24.47 24.57 24.39 24.30 24.20 24.03 23.88 23.69 23.48 23.42 23.14 23.06 22.86 22.70 22.61 22.45 22.44 22.36 22.29 22.19 22.28 22.21 22.23 22.21 22.21 22.24 22.17 22.31 22.34 22.37 22.49 22.42 22.54 22.54 22.63 22.69 22.70 22.72 22.78 22.85 22.93 22.98 22.95 23.06 23.05 23.08 23.17 23.11 23.24 23.31 23.30 23.49 23.49 23.51 23.51 23.62 23.62 23.71 23.71 23.74 23.85 23.89 23.93
19.19 19.18 19.26 19.32 19.40 19.48 19.49 19.64 19.71 19.76 19.85 20.02 20.09 20.19 20.39 20.54 20.69 20.91 21.11 21.31 21.54 21.93 22.15 22.41 22.74 23.00 23.30 23.49 23.89 24.21 24.37 24.44 24.72 24.85 24.94 25.00 24.99 24.92 24.86 24.79 24.62 24.43 24.28 24.09 24.00 23.61 23.49 23.27 23.11 22.91 22.90 22.69 22.53 22.48 22.43 22.32 22.26 22.22 22.21 22.17 22.14 22.18 22.23 22.27 22.28 22.36 22.41 22.42 22.42 22.50 22.52 22.67 22.62 22.63 22.86 22.78 22.81 22.84 22.91 23.03 23.04 23.09 23.05 23.19 23.22 23.16 23.27 23.31 23.29 23.38 23.48 23.60 23.65 23.50 23.64 23.79 23.77 23.86 23.79 23.95
19.17 19.23 19.28 19.32 19.41 19.54 19.54 19.57 19.65 19.74 19.82 19.95 20.11 20.22 20.32 20.60 20.73 20.98 21.12 21.44 21.67 21.92 22.33 22.57 23.02 23.24 23.59 23.90 24.23 24.42 24.72 24.89 25.08 25.31 25.29 25.38 25.42 25.33 25.17 25.12 24.99 24.81 24.55 24.47 24.19 23.92 23.71 23.44 23.34 23.12 22.94 22.83 22.59 22.54 22.41 22.42 22.32 22.30 22.29 22.24 22.21 22.25 22.29 22.24 22.30 22.35 22.41 22.47 22.39 22.50 22.53 22.48 22.59 22.61 22.59 22.79 22.85 22.85 22.87 22.94 22.93 22.96 23.19 23.04 23.22 23.28 23.25 23.27 23.21 23.41 23.50 23.57 23.52 23.62 23.70 23.76 23.70 23.72 23.78 23.86
19.09 19.22 19.27 19.33 19.41 19.41 19.58 19.53 19.79 19.84 19.89 20.02 20.11 20.21 20.34 20.71 20.94 21.16 21.35 21.49 21.89 22.07 22.47 22.85 23.10 23.46 23.78 24.13 24.58 24.81 25.06 25.33 25.54 25.62 25.71 25.75 25.71 25.75 25.63 25.46 25.35 25.13 24.95 24.66 24.39 24.03 23.97 23.73 23.38 23.32 23.06 22.85 22.70 22.50 22.55 22.34 22.30 22.26 22.26 22.21 22.30 22.24 22.17 22.23 22.42 22.27 22.32 22.31 22.38 22.42 22.51 22.57 22.64 22.65 22.70 22.72 22.73 22.87 22.91 23.03 23.05 23.08 23.06 23.17 23.14 23.18 23.22 23.38 23.37 23.38 23.54 23.48 23.47 23.56 23.66 23.74 23.66 23.81 23.77 23.92
19.10 19.13 19.19 19.25 19.31 19.46 19.48 19.52 19.66 19.72 19.80 19.91 20.12 20.24 20.48 20.64 20.72 21.06 21.36 21.71 21.93 22.28 22.75 22.95 23.35 23.66 24.15 24.45 24.86 25.08 25.35 25.78 25.92 26.09 26.08 26.15 26.16 26.06 26.04 25.85 25.68 25.45 25.22 24.95 24.63 24.43 24.07 23.89 23.68 23.37 23.22 22.93 22.77 22.55 22.57 22.39 22.32 22.23 22.29 22.25 22.19 22.24 22.26 22.23 22.33 22.26 22.28 22.34 22.34 22.51 22.52 22.56 22.61 22.74 22.65 22.77 22.76 22.85 22.96 22.99 22.94 23.04 23.00 23.11 23.12 23.20 23.25 23.32 23.30 23.45 23.45 23.46 23.52 23.53 23.68 23.59 23.81 23.86 23.85 23.87
19.07 19.20 19.22 19.22 19.27 19.40 19.45 19.53 19.67 19.73 19.94 20.04 20.16 20.34 20.47 20.73 20.98 21.23 21.45 21.76 22.06 22.39 22.86 23.16 23.63 23.94 24.42 24.74 25.05 25.47 25.69 26.12 26.23 26.36 26.45 26.48 26.57 26.41 26.29 26.16 25.97 25.68 25.43 25.12 24.87 24.63 24.31 24.07 23.73 23.51 23.26 23.00 22.89 22.71 22.49 22.48 22.32 22.32 22.22 22.22 22.20 22.28 22.12 22.21 22.36 22.28 22.44 22.31 22.34 22.39 22.46 22.48 22.64 22.62 22.56 22.77 22.73 22.80 22.74 22.89 22.97 22.94 23.11 23.13 23.07 23.17 23.27 23.27 23.37 23.44 23.48 23.49 23.53 23.42 23.64 23.66 23.73 23.79 23.77 23.84
19.15 19.23 19.11 19.31 19.39 19.38 19.46 19.63 19.68 19.64 19.96 19.98 20.14 20.31 20.46 20.80 20.92 21.13 21.59 21.77 22.27 22.55 22.94 23.32 23.86 24.07 24.50 25.01 25.38 25.73 25.94 26.29 26.56 26.65 26.91 26.86 26.81 26.75 26.61 26.46 26.19 25.94 25.77 25.39 25.04 24.81 24.35 24.12 23.83 23.48 23.34 23.09 22.88 22.63 22.64 22.40 22.35 22.38 22.29 22.23 22.14 22.21 22.30 22.19 22.24 22.24 22.21 22.36 22.40 22.43 22.49 22.56 22.57 22.66 22.57 22.71 22.85 22.78 22.81 22.90 22.96 22.98 22.98 23.10 23.03 23.18 23.24 23.21 23.40 23.38 23.47 23.48 23.53 23.54 23.72 23.71 23.71 23.77 23.80 23.71
19.06 19.16 19.20 19.34 19.32 19.32 19.45 19.61 19.67 19.74 19.80 20.03 20.22 20.37 20.48 20.77 21.02 21.32 21.60 21.93 22.23 22.64 23.08 23.52 23.96 24.32 24.74 25.20 25.57 25.90 26.34 26.63 26.71 27.03 27.09 27.21 27.08 27.08 26.95 26.75 26.43 26.18 25.94 25.50 25.29 24.89 24.52 24.25 23.95 23.57 23.48 23.16 23.12 22.72 22.57 22.48 22.38 22.36 22.31 22.18 22.14 22.20 22.17 22.23 22.29 22.32 22.20 22.33 22.32 22.40 22.40 22.42 22.38 22.63 22.53 22.64 22.66 22.86 22.80 22.92 22.90 22.98 23.00 23.05 23.11 23.24 23.19 23.26 23.24 23.30 23.44 23.40 23.43 23.62 23.54 23.57 23.64 23.82 23.74 23.81
19.08 19.15 19.18 19.25 19.27 19.39 19.47 19.54 19.69 19.80 19.90 20.03 20.17 20.42 20.48 20.69 20.93 21.29 21.62 21.89 22.21 22.73 23.17 23.58 24.00 24.53 25.00 25.31 25.83 26.21 26.51 26.84 27.00 27.27 27.33 27.38 27.34 27.29 27.13 26.82 26.73 26.35 26.06 25.72 25.41 25.12 24.68 24.37 24.10 23.69 23.47 23.23 23.07 22.85 22.59 22.50 22.58 22.32 22.24 22.18 22.19 22.02 22.25 22.17 22.33 22.30 22.23 22.32 22.40 22.42 22.39 22.51 22.54 22.56 22.65 22.70 22.71 22.72 22.85 22.92 22.96 22.98 23.04 23.03 23.11 23.05 23.19 23.21 23.23 23.34 23.44 23.49 23.49 23.52 23.64 23.49 23.63 23.72 23.80 23.79
19.00 19.14 19.15 19.22 19.20 19.31 19.43 19.55 19.60 19.76 19.80 19.92 20.24 20.34 20.50 20.74 21.08 21.35 21.69 21.98 22.43 22.71 23.14 23.72 24.06 24.61 25.01 25.56 25.90 26.32 26.64 26.92 27.19 27.42 27.51 27.55 27.51 27.52 27.22 27.09 26.89 26.56 26.17 25.84 25.59 25.14 24.80 24.40 24.14 23.84 23.51 23.23 22.93 22.85 22.68 22.58 22.37 22.30 22.25 22.34 22.23 22.08 22.15 22.10 22.18 22.23 22.24 22.30 22.42 22.45 22.47 22.43 22.45 22.53 22.62 22.73 22.75 22.71 22.85 22.90 22.86 22.93 22.98 22.97 23.10 23.08 23.19 23.21 23.23 23.34 23.35 23.44 23.36 23.49 23.57 23.54 23.71 23.77 23.84 23.77
19.04 19.01 19.13 19.21 19.26 19.27 19.50 19.55 19.56 19.77 19.88 20.03 20.17 20.32 20.53 20.81 21.05 21.40 21.72 21.99 22.46 22.89 23.26 23.73 24.24 24.67 25.17 25.59 25.96 26.41 26.65 27.00 27.27 27.49 27.66 27.66 27.63 27.47 27.26 27.22 26.93 26.64 26.37 25.93 25.52 25.15 24.88 24.51 24.17 23.76 23.48 23.19 23.07 22.87 22.69 22.49 22.38 22.25 22.16 22.19 22.17 22.08 22.06 22.16 22.17 22.27 22.24 22.30 22.32 22.42 22.38 22.56 22.48 22.50 22.63 22.66 22.64 22.76 22.87 22.78 22.93 22.91 22.96 22.97 23.00 23.15 23.12 23.26 23.25 23.31 23.40 23.33 23.44 23.55 23.55 23.57 23.65 23.64 23.75 23.78
19.04 19.10 19.10 19.17 19.18 19.33 19.45 19.59 19.64 19.72 19.84 19.94 20.19 20.47 20.45 20.72 21.05 21.35 21.75 22.02 22.41 22.82 23.23 23.71 24.25 24.63 25.20 25.53 26.03 26.43 26.79 27.12 27.30 27.54 27.65 27.71 27.66 27.60 27.38 27.21 26.96 26.68 26.27 25.99 25.69 25.23 24.79 24.49 24.20 23.82 23.47 23.30 23.03 22.79 22.64 22.57 22.41 22.36 22.19 22.22 22.13 22.17 22.16 22.15 22.16 22.15 22.19 22.30 22.25 22.31 22.38 22.45 22.38 22.56 22.57 22.63 22.69 22.69 22.73 22.85 22.91 22.93 22.96 23.03 23.07 23.19 23.23 23.27 23.28 23.38 23.33 23.40 23.40 23.45 23.57 23.52 23.67 23.61 23.74 23.84
18.98 19.11 19.06 19.19 19.27 19.37 19.44 19.56 19.54 19.72 19.79 20.07 20.18 20.36 20.60 20.78 21.04 21.38 21.61 21.98 22.46 22.83 23.22 23.68 24.10 24.56 25.13 25.56 25.91 26.35 26.71 27.06 27.28 27.50 27.63 27.64 27.67 27.52 27.40 27.13 26.89 26.58 26.31 25.94 25.55 25.15 24.84 24.51 24.13 23.77 23.45 23.25 22.99 22.75 22.62 22.52 22.29 22.26 22.26 22.15 22.11 22.16 22.10 22.10 22.18 22.15 22.26 22.26 22.31 22.31 22.31 22.46 22.44 22.52 22.52 22.57 22.60 22.76 22.73 22.81 22.92 22.90 22.98 22.98 23.01 23.13 23.17 23.11 23.14 23.27 23.36 23.41 23.36 23.43 23.46 23.56 23.67 23.66 23.66 23.75
18.98 19.03 19.16 19.09 19.21 19.30 19.40 19.44 19.51 19.69 19.83 19.87 20.10 20.22 20.51 20.61 20.94 21.35 21.60 21.97 22.25 22.81 23.20 23.65 24.11 24.55 25.10 25.52 25.96 26.29 26.64 26.98 27.14 27.39 27.55 27.56 27.61 27.36 27.24 27.04 26.85 26.56 26.21 25.90 25.51 25.07 24.73 24.39 23.97 23.74 23.46 23.17 22.91 22.73 22.59 22.39 22.37 22.28 22.22 22.12 22.10 22.02 22.07 22.04 22.22 22.17 22.24 22.25 22.28 22.28 22.25 22.34 22.37 22.47 22.60 22.52 22.63 22.75 22.66 22.78 22.79 22.92 22.91 22.92 22.94 23.12 23.12 23.15 23.12 23.25 23.28 23.40 23.40 23.42 23.40 23.57 23.63 23.74 23.63 23.75
18.97 19.03 19.12 19.22 19.19 19.32 19.37 19.43 19.52 19.67 19.78 19.92 20.19 20.29 20.45 20.71 20.97 21.38 21.47 21.91 22.24 22.72 23.07 23.55 24.03 24.45 24.91 25.37 25.77 26.22 26.48 26.79 26.99 27.28 27.27 27.37 27.44 27.18 27.06 26.83 26.71 26.31 26.02 25.73 25.27 24.94 24.63 24.40 23.95 23.59 23.45 23.08 22.94 22.73 22.55 22.47 22.35 22.23 22.16 22.00 22.12 22.08 22.11 22.12 22.07 22.12 22.14 22.18 22.26 22.26 22.24 22.42 22.51 22.38 22.45 22.62 22.60 22.73 22.73 22.81 22.86 22.86 22.97 22.85 23.05 23.08 23.14 23.16 23.13 23.29 23.22 23.40 23.37 23.45 23.47 23.42 23.61 23.59 23.62 23.72
18.93 19.01 19.04 19.11 19.16 19.25 19.32 19.39 19.55 19.67 19.73 19.86 20.03 20.16 20.45 20.63 20.94 21.21 21.43 21.80 22.19 22.54 23.04 23.29 23.81 24.39 24.73 25.17 25.62 26.02 26.24 26.69 26.74 27.00 27.09 27.06 27.10 26.98 26.96 26.74 26.45 26.16 25.82 25.55 25.27 24.85 24.50 24.28 23.82 23.62 23.35 22.99 22.89 22.77 22.56 22.36 22.30 22.21 22.12 22.02 21.95 22.17 22.07 22.07 22.10 22.00 22.23 22.19 22.16 22.32 22.34 22.43 22.43 22.54 22.57 22.50 22.67 22.72 22.68 22.68 22.84 22.88 22.81 22.97 22.94 23.12 22.98 23.18 23.19 23.22 23.38 23.25 23.37 23.46 23.45 23.60 23.57 23.72 23.73 23.75
18.88 18.94 19.06 19.09 19.08 19.22 19.38 19.50 19.53 19.63 19.79 19.87 20.00 20.18 20.35 20.52 20.82 21.19 21.38 21.68 22.07 22.52 22.95 23.26 23.70 24.20 24.46 24.98 25.36 25.64 26.08 26.25 26.57 26.67 26.80 26.79 26.87 26.79 26.72 26.52 26.18 25.95 25.65 25.31 24.97 24.70 24.40 24.05 23.74 23.43 23.13 23.01 22.80 22.62 22.40 22.27 22.23 22.24 22.13 22.08 21.96 22.09 22.03 22.05 22.04 22.10 22.14 22.19 22.25 22.30 22.36 22.29 22.40 22.48 22.46 22.57 22.65 22.81 22.74 22.72 22.81 22.78 22.75 22.94 22.95 23.01 23.17 23.14 23.14 23.29 23.34 23.32 23.33 23.44 23.46 23.36 23.57 23.64 23.61 23.70
18.88 18.99 19.00 19.03 19.21 19.23 19.32 19.32 19.46 19.53 19.71 19.84 19.98 20.05 20.28 20.50 20.79 21.00 21.23 21.64 21.95 22.28 22.62 23.04 23.38 23.83 24.24 24.72 25.04 25.45 25.66 26.02 26.24 26.42 26.44 26.54 26.49 26.41 26.23 26.19 25.90 25.66 25.40 25.03 24.91 24.46 24.21 23.88 23.66 23.39 23.09 22.91 22.72 22.52 22.43 22.32 22.20 22.06 22.00 21.96 22.02 22.09 22.04 21.98 22.13 22.12 22.02 22.26 22.30 22.20 22.28 22.30 22.36 22.53 22.46 22.54 22.49 22.60 22.74 22.74 22.71 22.87 22.88 22.89 23.06 23.04 23.05 23.03 23.13 23.13 23.33 23.36 23.35 23.38 23.54 23.44 23.45 23.60 23.53 23.63
18.87 19.01 19.05 19.06 19.10 19.18 19.24 19.38 19.40 19.59 19.63 19.77 19.96 20.09 20.31 20.40 20.64 20.97 21.21 21.55 21.84 22.16 22.47 22.90 23.26 23.65 24.02 24.38 24.72 25.13 25.41 25.58 25.86 25.97 26.04 26.15 26.13 26.11 25.96 25.84 25.62 25.34 25.04 24.88 24.49 24.40 23.96 23.64 23.52 23.22 22.96 22.74 22.58 22.36 22.27 22.27 22.05 22.14 22.04 21.92 22.05 21.99 22.10 22.02 21.98 22.06 22.15 22.06 22.24 22.24 22.32 22.27 22.46 22.45 22.43 22.51 22.62 22.64 22.71 22.74 22.67 22.83 22.85 22.91 22.98 22.98 23.10 23.19 23.09 23.19 23.20 23.28 23.25 23.35 23.40 23.39 23.47 23.55 23.58 23.67
18.86 19.01 18.96 18.99 19.03 19.23 19.25 19.37 19.43 19.55 19.64 19.67 19.93 20.03 20.17 20.35 20.60 20.81 21.00 21.39 21.62 21.97 22.38 22.62 23.00 23.34 23.74 24.06 24.36 24.78 24.92 25.26 25.35 25.61 25.72 25.69 25.69 25.69 25.59 25.38 25.29 25.08 24.83 24.50 24.26 24.06 23.83 23.56 23.29 23.06 22.87 22.59 22.44 22.42 22.27 22.18 22.08 22.01 21.96 22.05 21.93 22.00 21.92 22.01 22.03 22.09 22.00 22.14 22.23 22.19 22.22 22.25 22.34 22.38 22.46 22.52 22.59 22.69 22.60 22.72 22.75 22.81 22.89 22.86 22.93 22.99 23.06 23.07 23.14 23.21 23.17 23.23 23.36 23.27 23.33 23.48 23.54 23.53 23.52 23.70
18.83 18.98 19.01 19.14 19.05 19.20 19.21 19.26 19.38 19.62 19.60 19.65 19.91 19.95 20.17 20.28 20.40 20.71 21.00 21.25 21.51 21.85 22.17 22.43 22.79 23.06 23.42 23.76 24.06 24.43 24.59 24.87 24.97 25.11 25.21 25.33 25.27 25.24 25.12 25.05 24.81 24.66 24.42 24.26 24.03 23.82 23.58 23.43 23.15 22.90 22.75 22.56 22.29 22.30 22.14 22.17 22.06 22.00 21.99 21.90 21.91 22.00 21.98 21.79 21.96 21.93 22.05 22.20 22.18 22.19 22.18 22.31 22.38 22.46 22.44 22.44 22.57 22.60 22.71 22.66 22.68 22.84 22.87 22.91 22.91 23.02 23.00 23.06 23.15 23.25 23.29 23.26 23.22 23.30 23.30 23.38 23.59 23.67 23.49 23.61
18.84 18.99 18.94 19.15 19.03 19.16 19.23 19.23 19.35 19.42 19.48 19.72 19.76 19.90 20.06 20.20 20.41 20.63 20.83 21.03 21.36 21.55 21.92 22.29 22.64 22.75 23.08 23.44 23.72 23.98 24.14 24.42 24.61 24.75 24.82 24.88 24.91 24.74 24.64 24.64 24.49 24.31 24.12 24.00 23.76 23.52 23.23 23.15 22.92 22.68 22.56 22.40 22.25 22.12 22.08 22.04 21.90 21.98 21.87 21.91 21.92 21.91 21.92 21.98 22.07 22.02 22.09 22.18 22.17 22.23 22.09 22.23 22.24 22.43 22.41 22.43 22.53 22.64 22.63 22.66 22.75 22.82 22.80 22.89 22.97 22.96 23.02 23.03 23.06 23.15 23.22 23.23 23.25 23.38 23.23 23.43 23.39 23.62 23.59 23.56
18.90 18.90 18.94 19.05 19.05 19.01 19.24 19.25 19.31 19.48 19.46 19.59 19.66 19.78 19.96 20.16 20.36 20.51 20.74 20.88 21.20 21.36 21.59 21.97 22.33 22.49 22.96 23.06 23.26 23.63 23.73 24.07 24.23 24.28 24.36 24.36 24.49 24.37 24.31 24.29 24.06 24.01 23.85 23.56 23.55 23.24 23.09 22.96 22.71 22.57 22.39 22.25 22.13 22.18 22.02 22.05 21.88 21.98 21.82 21.91 21.87 21.85 21.91 21.83 22.03 22.00 22.06 22.05 22.02 22.27 22.27 22.28 22.42 22.39 22.40 22.41 22.48 22.56 22.55 22.61 22.78 22.88 22.89 22.87 22.94 22.97 22.95 23.06 23.15 23.08 23.21 23.23 23.30 23.31 23.34 23.41 23.44 23.48 23.59 23.68
18.80 18.90 18.88 18.95 19.14 19.04 19.20 19.24 19.34 19.35 19.44 19.54 19.73 19.79 19.83 19.92 20.18 20.43 20.59 20.82 21.02 21.32 21.44 21.69 21.94 22.21 22.55 22.71 23.07 23.27 23.42 23.61 23.79 23.79 23.92 23.96 23.98 23.98 23.92 23.82 23.74 23.57 23.43 23.25 23.15 23.01 22.78 22.70 22.59 22.46 22.22 22.16 22.12 22.00 21.97 21.98 21.80 21.83 21.86 21.81 21.83 21.89 21.92 21.92 21.93 21.98 22.04 22.14 22.24 22.06 22.20 22.35 22.39 22.41 22.35 22.44 22.52 22.51 22.69 22.59 22.88 22.76 22.77 22.83 22.90 23.02 22.96 23.15 23.20 23.21 23.25 23.29 23.22 23.35 23.42 23.36 23.44 23.51 23.67 23.56
18.78 18.95 18.93 19.00 19.04 19.00 19.13 19.18 19.25 19.40 19.35 19.54 19.62 19.70 19.81 19.96 20.15 20.27 20.44 20.59 20.82 21.03 21.25 21.43 21.78 22.01 22.24 22.42 22.72 22.89 23.07 23.26 23.32 23.45 23.46 23.60 23.63 23.56 23.59 23.59 23.41 23.33 23.12 23.08 22.93 22.76 22.62 22.49 22.29 22.22 22.18 22.01 22.02 21.92 21.86 21.78 21.73 21.84 21.72 21.77 21.80 21.86 21.87 21.82 21.90 21.94 21.91 21.99 22.14 22.16 22.18 22.25 22.35 22.39 22.40 22.48 22.51 22.56 22.61 22.63 22.76 22.73 22.81 22.87 22.87 23.01 23.03 23.06 23.19 23.24 23.20 23.26 23.25 23.34 23.39 23.39 23.52 23.50 23.61 23.56
18.77 18.89 18.86 18.90 18.96 19.04 19.17 19.17 19.27 19.42 19.33 19.39 19.60 19.75 19.83 19.90 19.97 20.17 20.27 20.53 20.69 20.93 21.14 21.30 21.48 21.67 21.93 22.12 22.41 22.51 22.64 22.90 22.96 23.10 23.05 23.19 23.14 23.20 23.13 23.13 23.02 23.03 22.94 22.73 22.59 22.50 22.40 22.25 22.17 22.12 22.10 21.99 21.91 21.89 21.79 21.86 21.77 21.78 21.67 21.80 21.73 21.84 21.86 21.82 21.95 21.98 22.06 22.06 22.09 22.20 22.31 22.25 22.26 22.44 22.48 22.45 22.48 22.56 22.64 22.70 22.80 22.69 22.81 22.81 22.93 22.96 23.02 23.05 23.09 23.19 23.18 23.28 23.24 23.29 23.30 23.44 23.46 23.51 23.50 23.59
18.70 18.87 18.85 18.87 18.99 19.01 19.06 19.21 19.21 19.33 19.36 19.47 19.53 19.63 19.78 19.87 20.05 20.06 20.25 20.42 20.46 20.80 20.80 21.11 21.24 21.51 21.73 21.84 21.99 22.22 22.30 22.44 22.59 22.68 22.68 22.73 22.80 22.82 22.77 22.80 22.80 22.64 22.64 22.48 22.44 22.27 22.18 22.09 22.04 21.99 21.98 21.86 21.73 21.81 21.76 21.71 21.64 21.70 21.68 21.68 21.85 21.77 21.85 21.88 21.92 21.90 21.96 22.21 22.18 22.12 22.27 22.19 22.27 22.34 22.47 22.43 22.50 22.60 22.62 22.69 22.76 22.76 22.85 22.80 22.98 22.91 22.95 23.06 23.07 23.16 23.25 23.27 23.34 23.30 23.33 23.46 23.39 23.43 23.55 23.57
18.75 18.83 18.83 18.92 19.00 19.08 19.04 19.14 19.20 19.28 19.34 19.34 19.46 19.60 19.57 19.74 19.76 19.99 20.17 20.20 20.39 20.62 20.79 20.93 21.11 21.21 21.43 21.60 21.76 21.85 22.11 22.17 22.27 22.26 22.39 22.40 22.45 22.47 22.51 22.47 22.44 22.42 22.33 22.24 22.21 22.13 22.04 21.98 21.84 21.84 21.77 21.74 21.73 21.63 21.69 21.61 21.72 21.71 21.63 21.80 21.83 21.74 21.79 21.88 22.00 22.01 21.99 22.07 21.98 22.24 22.20 22.24 22.24 22.40 22.33 22.51 22.45 22.66 22.62 22.62 22.72 22.84 22.79 22.90 22.93 23.05 22.95 23.11 23.16 23.20 23.18 23.16 23.28 23.42 23.30 23.38 23.44 23.54 23.49 23.58
18.73 18.82 18.83 18.94 18.98 18.97 19.19 19.17 19.20 19.20 19.34 19.33 19.40 19.45 19.47 19.68 19.78 19.90 20.02 20.11 20.31 20.45 20.59 20.69 20.85 20.96 21.11 21.26 21.48 21.69 21.81 21.83 21.87 21.98 22.03 22.19 22.19 22.14 22.22 22.18 22.07 22.07 22.12 21.97 21.82 21.87 21.82 21.82 21.77 21.71 21.61 21.68 21.59 21.61 21.59 21.58 21.59 21.55 21.64 21.62 21.75 21.79 21.75 21.82 21.88 21.93 21.95 22.01 22.09 22.10 22.22 22.32 22.32 22.32 22.45 22.57 22.51 22.48 22.66 22.66 22.72 22.75 22.87 22.90 22.92 22.95 23.06 23.16 23.07 23.21 23.16 23.17 23.29 23.34 23.41 23.48 23.47 23.47 23.54 23.50
18.69 18.77 18.83 18.99 18.82 19.05 18.94 19.04 19.16 19.17 19.32 19.29 19.49 19.52 19.60 19.72 19.65 19.94 19.96 20.11 20.18 20.26 20.46 20.59 20.73 20.86 20.93 21.21 21.23 21.33 21.53 21.53 21.71 21.74 21.80 21.83 21.85 21.85 22.00 21.95 21.92 21.89 21.89 21.91 21.77 21.74 21.69 21.62 21.60 21.63 21.58 21.52 21.62 21.53 21.58 21.58 21.57 21.65 21.55 21.69 21.57 21.75 21.89 21.85 21.89 22.03 21.97 22.01 22.25 22.15 22.28 22.35 22.40 22.43 22.41 22.57 22.55 22.60 22.63 22.82 22.69 22.79 22.84 22.93 23.00 22.98 23.12 23.07 23.20 23.17 23.33 23.24 23.30 23.39 23.37 23.40 23.47 23.41 23.59 23.57
18.67 18.75 18.78 18.90 18.90 18.99 18.96 19.10 19.17 19.20 19.26 19.29 19.38 19.46 19.54 19.68 19.67 19.79 19.84 20.01 20.18 20.15 20.32 20.44 20.68 20.69 20.86 20.87 21.04 21.14 21.24 21.29 21.45 21.49 21.68 21.58 21.61 21.64 21.67 21.68 21.66 21.64 21.60 21.66 21.67 21.63 21.60 21.51 21.48 21.38 21.43 21.49 21.46 21.50 21.49 21.40 21.47 21.60 21.56 21.67 21.72 21.68 21.79 21.84 21.90 21.93 21.99 22.02 22.08 22.09 22.18 22.29 22.40 22.42 22.47 22.57 22.49 22.75 22.71 22.73 22.70 22.88 22.88 22.89 22.96 22.94 23.04 23.19 23.13 23.23 23.31 23.27 23.35 23.30 23.38 23.39 23.44 23.53 23.50 23.53
18.69 18.75 18.86 18.86 18.83 18.84 18.99 19.02 19.04 19.11 19.21 19.26 19.34 19.43 19.49 19.54 19.60 19.68 19.84 19.99 20.07 20.13 20.17 20.36 20.39 20.55 20.66 20.74 20.87 20.91 21.04 21.02 21.19 21.26 21.21 21.42 21.35 21.41 21.38 21.48 21.42 21.33 21.44 21.49 21.48 21.39 21.40 21.41 21.52 21.32 21.45 21.46 21.42 21.46 21.43 21.53 21.54 21.59 21.53 21.66 21.62 21.74 21.81 21.75 21.80 21.95 21.97 22.15 22.05 22.16 22.26 22.23 22.34 22.37 22.59 22.54 22.62 22.76 22.73 22.80 22.86 22.88 22.93 22.97 23.00 23.12 23.08 23.20 23.10 23.21 23.28 23.35 23.29 23.41 23.37 23.43 23.56 23.47 23.54 23.58
18.80 18.75 18.73 18.80 18.91 18.95 19.00 18.99 19.02 19.11 19.13 19.21 19.29 19.46 19.48 19.51 19.59 19.58 19.76 19.82 19.99 19.94 20.07 20.23 20.23 20.41 20.43 20.59 20.65 20.74 20.83 20.88 21.05 21.02 21.09 21.12 21.18 21.27 21.28 21.39 21.25 21.24 21.36 21.28 21.31 21.31 21.26 21.31 21.34 21.31 21.30 21.31 21.39 21.40 21.44 21.50 21.47 21.51 21.57 21.64 21.70 21.64 21.77 21.85 21.92 21.97 22.01 22.15 22.17 22.25 22.27 22.41 22.46 22.49 22.49 22.63 22.69 22.79 22.73 22.84 22.87 22.94 22.93 22.99 23.14 23.16 23.28 23.19 23.23 23.29 23.23 23.32 23.40 23.37 23.47 23.42 23.50 23.49 23.55 23.55
18.52 18.67 18.75 18.71 18.88 18.96 18.98 18.97 19.02 19.08 19.23 19.22 19.28 19.37 19.38 19.36 19.57 19.57 19.63 19.71 19.88 19.93 20.03 20.13 20.14 20.24 20.41 20.41 20.53 20.57 20.63 20.83 20.83 20.92 20.89 21.03 21.01 21.06 21.14 21.12 21.08 21.16 21.16 21.15 21.13 21.16 21.17 21.28 21.27 21.28 21.20 21.28 21.28 21.35 21.46 21.46 21.46 21.55 21.53 21.59 21.63 21.74 21.74 21.79 21.89 21.95 22.06 22.08 22.23 22.28 22.29 22.52 22.46 22.45 22.59 22.57 22.69 22.80 22.70 22.96 22.84 22.92 23.01 23.06 23.01 23.13 23.13 23.28 23.24 23.25 23.36 23.41 23.37 23.41 23.49 23.50 23.47 23.49 23.53 23.68
18.71 18.71 18.80 18.77 18.82 18.93 18.92 19.03 19.02 19.06 19.16 19.18 19.31 19.35 19.32 19.42 19.47 19.53 19.66 19.67 19.74 19.87 19.81 19.97 20.06 20.22 20.19 20.32 20.42 20.48 20.57 20.56 20.63 20.71 20.78 20.90 20.87 21.01 20.91 20.92 21.02 21.03 21.00 21.09 21.07 21.19 21.11 21.11 21.19 21.21 21.29 21.23 21.32 21.32 21.30 21.36 21.42 21.42 21.47 21.62 21.70 21.77 21.73 21.89 21.88 21.89 22.06 22.07 22.11 22.21 22.23 22.40 22.49 22.55 22.64 22.64 22.76 22.83 22.90 22.91 23.00 23.07 23.08 23.17 23.11 23.25 23.25 23.28 23.30 23.25 23.37 23.40 23.49 23.48 23.51 23.46 23.56 23.52 23.61 23.62
18.67 18.66 18.73 18.79 18.79 18.81 18.89 19.00 19.04 19.06 19.22 19.18 19.26 19.28 19.40 19.42 19.53 19.52 19.67 19.71 19.84 19.82 19.84 20.04 20.01 20.02 20.26 20.26 20.21 20.35 20.45 20.31 20.68 20.59 20.72 20.69 20.81 20.90 20.84 20.95 20.87 20.94 21.04 20.98 21.08 21.03 20.95 21.09 21.05 21.08 21.21 21.21 21.31 21.34 21.41 21.41 21.36 21.40 21.53 21.61 21.61 21.67 21.71 21.85 21.92 22.05 22.02 22.23 22.34 22.37 22.37 22.46 22.44 22.59 22.66 22.78 22.72 22.84 22.91 22.95 22.99 23.08 23.16 23.25 23.23 23.37 23.30 23.36 23.39 23.39 23.33 23.43 23.45 23.50 23.48 23.51 23.53 23.63 23.60 23.67
18.56 18.62 18.61 18.82 18.85 18.88 18.96 18.94 18.95 18.99 19.15 19.11 19.25 19.27 19.37 19.33 19.45 19.36 19.57 19.71 19.69 19.76 19.76 19.84 19.95 19.99 20.05 20.10 20.23 20.24 20.37 20.34 20.47 20.51 20.58 20.66 20.66 20.75 20.74 20.77 20.85 20.91 20.89 20.98 20.91 21.01 20.97 20.97 21.00 21.08 21.13 21.14 21.31 21.21 21.48 21.33 21.45 21.50 21.59 21.61 21.65 21.65 21.84 21.86 21.83 21.99 22.04 22.12 22.22 22.42 22.42 22.44 22.54 22.57 22.64 22.85 22.87 22.80 23.02 23.08 23.15 23.22 23.30 23.28 23.32 23.30 23.40 23.47 23.47 23.40 23.48 23.50 23.45 23.61 23.58 23.55 23.68 23.69 23.69 23.68
18.64 18.64 18.74 18.79 18.82 18.93 18.91 18.90 19.00 19.10 19.06 19.12 19.09 19.26 19.29 19.34 19.44 19.42 19.56 19.65 19.65 19.75 19.73 19.76 19.89 19.93 20.04 20.10 20.05 20.22 20.35 20.24 20.41 20.46 20.51 20.54 20.59 20.64 20.69 20.62 20.67 20.79 20.73 20.77 20.92 20.97 20.90 20.99 21.00 20.98 21.16 21.16 21.25 21.21 21.21 21.31 21.36 21.41 21.47 21.67 21.68 21.73 21.74 21.94 21.96 21.98 22.09 22.12 22.35 22.30 22.45 22.62 22.59 22.61 22.80 22.89 22.93 22.94 23.07 23.20 23.22 23.23 23.28 23.32 23.35 23.42 23.50 23.43 23.51 23.55 23.53 23.58 23.67 23.53 23.55 23.51 23.52 23.65 23.63 23.70
18.63 18.65 18.60 18.77 18.78 18.81 18.87 18.88 18.99 19.03 19.04 19.09 19.07 19.25 19.22 19.33 19.41 19.49 19.46 19.57 19.57 19.60 19.77 19.69 19.88 19.96 19.96 19.97 20.07 20.14 20.20 20.24 20.30 20.29 20.43 20.50 20.46 20.52 20.61 20.60 20.69 20.74 20.78 20.77 20.77 20.82 20.91 20.96 20.85 20.99 21.11 21.18 21.20 21.24 21.24 21.31 21.47 21.35 21.54 21.54 21.63 21.69 21.80 22.01 21.95 22.02 22.12 22.21 22.32 22.37 22.46 22.62 22.78 22.65 22.83 23.08 23.01 23.13 23.12 23.26 23.28 23.39 23.29 23.46 23.60 23.45 23.54 23.57 23.50 23.64 23.62 23.56 23.59 23.70 23.68 23.72 23.61 23.73 23.73 23.70
18.52 18.55 18.64 18.75 18.73 18.78 18.80 18.95 19.03 19.02 19.06 19.03 19.12 19.23 19.30 19.28 19.35 19.30 19.48 19.51 19.64 19.54 19.66 19.76 19.80 19.84 19.87 19.92 20.04 20.09 20.10 20.13 20.26 20.30 20.29 20.43 20.38 20.41 20.47 20.52 20.53 20.62 20.78 20.79 20.79 20.74 20.85 20.92 20.93 20.98 20.96 20.97 21.17 21.22 21.37 21.33 21.35 21.49 21.47 21.53 21.58 21.76 21.78 21.86 22.04 22.01 22.11 22.27 22.32 22.39 22.60 22.72 22.78 22.88 22.86 23.01 23.14 23.22 23.32 23.27 23.33 23.52 23.61 23.54 23.55 23.56 23.63 23.67 23.66 23.60 23.68 23.67 23.62 23.66 23.72 23.73 23.60 23.70 23.71 23.72
18.50 18.66 18.65 18.67 18.78 18.74 18.79 18.85 18.91 18.94 19.01 19.10 19.15 19.19 19.29 19.31 19.25 19.45 19.39 19.50 19.51 19.71 19.58 19.66 19.83 19.72 19.93 19.92 20.01 20.07 20.16 20.13 20.18 20.20 20.28 20.41 20.46 20.45 20.49 20.48 20.52 20.51 20.60 20.60 20.74 20.77 20.90 20.76 21.02 21.02 21.07 21.09 21.04 21.25 21.23 21.29 21.37 21.47 21.50 21.62 21.62 21.72 21.80 21.97 22.07 22.16 22.15 22.30 22.43 22.56 22.59 22.66 22.87 22.89 22.93 23.07 23.16 23.30 23.37 23.45 23.48 23.59 23.55 23.74 23.60 23.72 23.69 23.71 23.67 23.75 23.83 23.71 23.79 23.81 23.82 23.70 23.78 23.72 23.78 23.68
18.51 18.58 18.58 18.62 18.70 18.79 18.88 18.85 18.90 18.94 19.00 19.06 19.13 19.20 19.16 19.19 19.30 19.45 19.42 19.40 19.50 19.56 19.69 19.66 19.67 19.79 19.77 19.83 19.98 19.96 19.99 20.11 20.14 20.17 20.30 20.25 20.30 20.39 20.38 20.52 20.48 20.56 20.62 20.63 20.80 20.74 20.81 20.87 20.87 20.89 21.05 21.04 21.08 21.14 21.28 21.27 21.33 21.54 21.54 21.72 21.76 21.71 21.78 21.94 22.04 22.17 22.24 22.39 22.50 22.55 22.61 22.77 22.86 22.97 23.07 23.12 23.32 23.33 23.48 23.47 23.56 23.59 23.78 23.74 23.88 23.80 23.82 23.85 23.86 23.91 23.89 23.85 23.89 23.78 23.84 23.91 23.87 23.88 23.78 23.71
18.54 18.52 18.63 18.68 18.66 18.88 18.83 18.80 18.91 18.91 19.03 19.04 19.15 19.13 19.21 19.35 19.21 19.29 19.35 19.47 19.42 19.54 19.67 19.65 19.65 19.68 19.73 19.97 19.90 19.89 19.90 20.04 20.16 20.15 20.09 20.12 20.27 20.52 20.40 20.40 20.49 20.45 20.60 20.53 20.67 20.75 20.80 20.85 20.82 20.85 20.99 21.04 21.10 21.10 21.37 21.33 21.28 21.51 21.51 21.64 21.70 21.83 21.81 22.07 22.02 22.19 22.40 22.37 22.59 22.63 22.75 22.83 23.01 23.03 23.16 23.36 23.40 23.48 23.60 23.71 23.71 23.88 23.81 23.85 23.92 23.95 24.06 23.95 23.99 23.94 23.96 23.89 23.96 23.89 23.90 23.87 23.83 23.92 23.82 23.73
18.55 18.53 18.58 18.60 18.62 18.74 18.74 18.76 19.02 18.94 18.96 19.06 19.11 19.14 19.15 19.22 19.31 19.30 19.34 19.43 19.46 19.42 19.57 19.65 19.69 19.70 19.73 19.78 19.88 19.93 20.04 20.08 20.03 20.07 20.21 20.19 20.31 20.23 20.36 20.45 20.52 20.45 20.60 20.61 20.68 20.75 20.71 20.76 20.89 20.93 21.03 20.96 21.13 21.17 21.22 21.20 21.38 21.46 21.53 21.69 21.72 21.78 21.92 22.01 22.10 22.18 22.39 22.48 22.59 22.68 22.96 22.93 22.99 23.14 23.34 23.44 23.49 23.60 23.66 23.77 23.87 23.98 23.96 23.98 24.03 24.09 24.04 24.03 24.04 24.06 23.97 24.11 23.93 23.96 24.02 23.99 23.90 23.92 23.79 23.78
18.48 18.45 18.57 18.60 18.69 18.74 18.71 18.84 18.86 18.91 18.94 18.98 19.01 19.05 19.11 19.18 19.24 19.15 19.31 19.33 19.45 19.52 19.51 19.60 19.64 19.69 19.73 19.82 19.89 20.01 19.95 19.99 20.01 20.15 20.09 20.28 20.27 20.30 20.35 20.38 20.43 20.38 20.49 20.57 20.62 20.66 20.67 20.79 20.81 20.86 20.98 20.98 21.08 21.12 21.27 21.23 21.44 21.53 21.54 21.58 21.70 21.86 21.98 22.00 22.09 22.26 22.39 22.43 22.73 22.70 22.88 23.08 23.18 23.31 23.34 23.52 23.61 23.63 23.81 23.94 23.90 24.13 24.12 24.08 24.09 24.18 24.20 24.09 24.15 24.17 24.09 24.21 24.09 24.08 24.04 24.04 24.03 23.96 24.02 23.84
18.50 18.52 18.58 18.55 18.74 18.71 18.74 18.81 18.80 18.98 18.92 18.98 19.07 19.04 19.16 19.22 19.27 19.30 19.30 19.40 19.44 19.59 19.52 19.53 19.59 19.65 19.80 19.81 19.82 19.93 19.85 20.00 20.13 20.03 20.10 20.10 20.18 20.22 20.32 20.31 20.31 20.54 20.47 20.51 20.62 20.58 20.67 20.70 20.83 20.88 20.98 21.00 21.04 21.06 21.23 21.29 21.40 21.43 21.46 21.66 21.77 21.84 21.96 22.14 22.20 22.26 22.40 22.56 22.68 22.92 22.87 23.21 23.19 23.43 23.40 23.55 23.67 23.84 24.03 24.09 24.13 24.09 24.28 24.29 24.16 24.34 24.35 24.31 24.32 24.35 24.18 24.26 24.12 24.15 24.14 24.13 24.04 23.99 23.95 23.88
18.45 18.46 18.43 18.57 18.60 18.68 18.72 18.81 18.73 18.89 18.89 19.03 19.13 19.05 19.10 19.19 19.25 19.25 19.31 19.41 19.36 19.47 19.41 19.60 19.59 19.68 19.78 19.73 19.87 19.83 19.87 19.92 20.09 20.05 20.14 20.08 20.19 20.18 20.31 20.29 20.38 20.51 20.45 20.58 20.58 20.60 20.65 20.81 20.84 20.89 20.92 21.05 21.10 21.14 21.12 21.30 21.42 21.46 21.55 21.60 21.69 21.80 21.92 22.10 22.24 22.38 22.46 22.59 22.68 22.85 23.06 23.15 23.43 23.43 23.62 23.84 23.89 23.99 23.97 24.08 24.19 24.30 24.40 24.42 24.43 24.36 24.41 24.49 24.34 24.38 24.38 24.36 24.25 24.23 24.16 24.09 24.15 24.03 24.04 24.00
18.42 18.37 18.52 18.55 18.55 18.71 18.61 18.78 18.84 18.87 18.92 19.07 18.98 19.13 19.08 19.20 19.16 19.18 19.29 19.35 19.32 19.46 19.50 19.46 19.68 19.68 19.70 19.72 19.82 19.81 19.86 19.89 20.00 19.99 20.03 20.12 20.21 20.20 20.23 20.25 20.42 20.44 20.46 20.53 20.55 20.55 20.65 20.76 20.76 20.87 20.87 20.93 21.05 21.15 21.13 21.33 21.46 21.43 21.56 21.59 21.73 21.92 21.93 22.09 22.41 22.33 22.49 22.74 22.75 22.86 23.14 23.19 23.41 23.61 23.73 23.85 23.89 24.05 24.18 24.23 24.36 24.44 24.49 24.47 24.49 24.54 24.54 24.58 24.62 24.54 24.49 24.42 24.35 24.39 24.24 24.13 24.12 24.09 23.94 24.07
18.45 18.47 18.53 18.56 18.65 18.65 18.75 18.67 18.82 18.85 18.91 18.88 18.97 19.10 19.04 18.99 19.15 19.22 19.25 19.30 19.43 19.45 19.53 19.55 19.58 19.69 19.71 19.80 19.77 19.85 19.87 19.97 19.92 19.95 19.99 20.14 20.09 20.15 20.29 20.40 20.32 20.42 20.43 20.55 20.54 20.67 20.64 20.64 20.79 20.86 20.88 20.88 21.10 21.16 21.17 21.23 21.29 21.45 21.57 21.68 21.67 21.76 22.03 22.17 22.26 22.39 22.54 22.79 22.93 23.07 23.27 23.37 23.46 23.73 23.72 24.05 24.12 24.17 24.32 24.48 24.42 24.50 24.51 24.56 24.67 24.78 24.66 24.68 24.67 24.67 24.56 24.51 24.49 24.35 24.28 24.30 24.27 24.21 24.12 24.11
18.40 18.43 18.55 18.43 18.58 18.75 18.69 18.76 18.69 18.86 18.94 18.91 18.97 19.02 19.04 19.12 19.21 19.21 19.26 19.38 19.35 19.45 19.48 19.54 19.60 19.60 19.68 19.76 19.76 19.76 19.78 19.96 19.92 19.98 20.04 20.04 20.21 20.27 20.25 20.36 20.33 20.38 20.53 20.41 20.51 20.66 20.71 20.73 20.81 20.78 20.89 21.03 21.07 21.06 21.17 21.23 21.41 21.35 21.54 21.65 21.77 21.85 22.10 22.20 22.32 22.34 22.61 22.76 22.91 23.15 23.23 23.42 23.54 23.75 23.79 23.99 24.16 24.32 24.30 24.47 24.63 24.70 24.68 24.74 24.80 24.80 24.84 24.87 24.72 24.72 24.69 24.54 24.57 24.47 24.40 24.33 24.37 24.19 24.11 24.05
18.35 18.40 18.45 18.50 18.50 18.56 18.63 18.68 18.77 18.85 18.88 19.00 18.96 19.02 19.03 19.11 19.13 19.29 19.17 19.25 19.28 19.39 19.49 19.52 19.49 19.63 19.57 19.66 19.76 19.77 19.83 19.84 20.00 19.98 20.02 20.14 20.17 20.11 20.33 20.24 20.31 20.31 20.50 20.52 20.45 20.68 20.65 20.74 20.76 20.85 20.91 20.90 20.95 21.08 21.20 21.27 21.41 21.40 21.53 21.76 21.68 21.90 22.01 22.19 22.30 22.50 22.74 22.82 22.99 23.26 23.36 23.47 23.62 23.87 23.96 24.17 24.20 24.44 24.49 24.61 24.73 24.79 24.81 24.96 24.82 24.85 24.93 24.90 24.81 24.83 24.71 24.71 24.68 24.53 24.43 24.49 24.25 24.38 24.18 24.18
18.30 18.38 18.52 18.51 18.55 18.62 18.60 18.72 18.75 18.81 18.88 18.97 18.89 18.93 18.99 19.14 19.22 19.15 19.29 19.25 19.24 19.36 19.40 19.46 19.43 19.56 19.67 19.60 19.80 19.75 19.81 19.84 19.75 19.93 20.00 20.05 20.02 20.20 20.16 20.25 20.27 20.30 20.34 20.47 20.53 20.53 20.73 20.64 20.79 20.85 20.85 20.96 21.00 21.08 21.23 21.27 21.33 21.53 21.55 21.59 21.84 21.82 22.16 22.13 22.43 22.57 22.65 22.82 23.03 23.15 23.39 23.62 23.77 23.93 24.00 24.15 24.37 24.59 24.58 24.75 24.89 24.99 24.84 24.95 25.00 24.91 24.98 24.88 24.92 24.88 24.92 24.78 24.70 24.57 24.44 24.44 24.35 24.31 24.30 24.10
18.34 18.36 18.42 18.44 18.58 18.59 18.67 18.68 18.76 18.84 18.86 18.88 18.92 18.99 19.00 19.06 19.08 19.18 19.20 19.36 19.29 19.22 19.33 19.47 19.53 19.45 19.64 19.62 19.74 19.74 19.77 19.87 19.88 20.01 19.86 20.05 20.08 20.16 20.14 20.20 20.28 20.33 20.38 20.44 20.55 20.49 20.53 20.62 20.74 20.77 20.85 20.93 20.90 21.15 21.18 21.26 21.26 21.41 21.58 21.71 21.87 21.96 22.10 22.17 22.47 22.54 22.76 22.84 23.06 23.24 23.40 23.60 23.72 24.02 24.12 24.31 24.40 24.52 24.64 24.74 24.83 25.02 25.04 25.10 25.06 25.20 25.05 25.03 25.02 24.88 24.87 24.83 24.78 24.66 24.53 24.57 24.36 24.30 24.29 24.18
18.33 18.33 18.46 18.53 18.48 18.63 18.62 18.73 18.78 18.80 18.80 18.89 18.94 18.95 19.08 19.00 19.08 19.13 19.16 19.32 19.27 19.33 19.38 19.48 19.50 19.47 19.60 19.61 19.62 19.72 19.78 19.77 19.83 19.90 19.95 19.99 19.98 20.14 20.11 20.21 20.28 20.34 20.31 20.48 20.61 20.55 20.55 20.71 20.76 20.70 20.89 20.92 20.92 21.12 21.11 21.25 21.32 21.48 21.54 21.68 21.74 22.04 22.03 22.27 22.47 22.59 22.75 22.85 23.12 23.32 23.43 23.62 23.80 23.86 24.21 24.33 24.44 24.64 24.84 24.93 24.97 25.01 25.13 25.06 25.12 25.17 25.05 25.05 25.02 25.04 24.99 24.89 24.85 24.74 24.61 24.57 24.42 24.33 24.26 24.20
18.32 18.40 18.44 18.54 18.58 18.54 18.60 18.63 18.75 18.72 18.76 18.82 18.96 18.89 18.90 19.02 19.14 19.16 19.19 19.22 19.22 19.39 19.37 19.45 19.49 19.50 19.60 19.61 19.67 19.71 19.76 19.77 19.94 19.85 19.95 20.02 20.07 20.10 20.13 20.25 20.21 20.29 20.41 20.37 20.57 20.55 20.56 20.54 20.76 20.76 20.89 20.94 21.07 21.10 21.15 21.26 21.28 21.42 21.61 21.67 21.90 22.05 22.03 22.32 22.30 22.59 22.69 22.93 23.21 23.31 23.58 23.72 23.92 24.03 24.19 24.34 24.49 24.72 24.79 24.87 24.96 25.11 25.11 25.14 25.25 25.25 25.14 25.15 25.13 25.03 25.01 24.94 24.86 24.80 24.69 24.52 24.49 24.32 24.36 24.21
18.31 18.35 18.34 18.43 18.46 18.60 18.64 18.62 18.69 18.81 18.80 18.85 18.97 18.87 18.91 19.07 19.11 19.10 19.13 19.26 19.22 19.34 19.32 19.33 19.53 19.53 19.51 19.60 19.69 19.65 19.79 19.78 19.83 19.92 19.93 19.99 20.01 20.03 20.19 20.24 20.22 20.24 20.28 20.40 20.43 20.46 20.52 20.65 20.66 20.77 20.81 20.95 21.03 21.02 21.04 21.32 21.35 21.44 21.63 21.69 21.79 22.03 22.15 22.22 22.39 22.61 22.80 22.97 23.05 23.33 23.52 23.74 23.93 24.04 24.28 24.42 24.64 24.62 24.77 25.02 25.09 25.15 25.14 25.29 25.25 25.16 25.26 25.20 25.13 25.14 24.92 24.92 24.85 24.81 24.71 24.62 24.58 24.35 24.34 24.28
18.23 18.36 18.43 18.43 18.52 18.48 18.62 18.64 18.71 18.70 18.80 18.75 18.83 18.88 18.97 19.05 19.17 19.08 19.13 19.18 19.27 19.27 19.33 19.40 19.35 19.42 19.56 19.61 19.63 19.72 19.71 19.83 19.85 19.85 19.86 19.95 20.11 20.01 20.12 20.12 20.19 20.28 20.34 20.34 20.41 20.51 20.58 20.61 20.59 20.62 20.84 20.86 20.99 20.88 21.16 21.23 21.33 21.46 21.58 21.63 21.85 21.92 22.06 22.28 22.32 22.60 22.81 22.80 23.15 23.29 23.60 23.71 23.90 24.07 24.34 24.44 24.56 24.67 24.79 24.96 25.01 25.12 25.26 25.28 25.22 25.23 25.26 25.15 25.17 25.08 25.03 24.94 24.83 24.80 24.72 24.51 24.53 24.34 24.36 24.29
18.38 18.36 18.35 18.34 18.39 18.54 18.53 18.59 18.62 18.71 18.70 18.75 18.93 18.89 18.99 19.02 19.01 19.10 19.21 19.17 19.27 19.36 19.43 19.41 19.41 19.54 19.53 19.63 19.75 19.67 19.67 19.86 19.81 19.90 19.88 19.98 20.04 20.03 20.19 20.22 20.15 20.27 20.39 20.39 20.52 20.48 20.58 20.52 20.60 20.68 20.77 20.86 20.92 21.06 21.00 21.23 21.32 21.36 21.45 21.67 21.74 21.96 22.09 22.16 22.35 22.62 22.79 22.95 23.17 23.29 23.55 23.76 23.89 24.09 24.24 24.34 24.55 24.72 24.91 25.00 25.00 25.17 25.20 25.21 25.24 25.32 25.18 25.24 25.17 25.01 25.07 24.91 24.79 24.83 24.66 24.52 24.46 24.39 24.24 24.21
18.27 18.27 18.35 18.44 18.44 18.47 18.61 18.62 18.71 18.69 18.71 18.79 18.81 18.76 18.87 18.92 19.04 19.04 19.17 19.16 19.25 19.27 19.35 19.41 19.39 19.45 19.44 19.58 19.61 19.61 19.75 19.79 19.72 19.79 19.81 19.94 20.03 20.05 20.09 20.21 20.14 20.22 20.24 20.32 20.42 20.49 20.48 20.60 20.63 20.64 20.74 20.84 20.96 21.01 21.07 21.30 21.23 21.42 21.60 21.51 21.74 21.94 22.10 22.15 22.42 22.57 22.84 22.97 23.08 23.39 23.47 23.66 23.85 24.02 24.32 24.32 24.55 24.69 24.89 24.98 25.07 25.18 25.21 25.16 25.26 25.30 25.32 25.23 25.19 25.13 25.07 24.90 24.82 24.80 24.63 24.53 24.50 24.36 24.25 24.18
18.22 18.32 18.37 18.34 18.39 18.46 18.60 18.52 18.60 18.63 18.69 18.77 18.82 18.94 18.90 19.10 18.99 19.02 19.05 19.19 19.28 19.35 19.27 19.31 19.46 19.43 19.58 19.50 19.64 19.65 19.70 19.74 19.80 19.77 19.87 19.92 19.99 20.02 20.03 20.14 20.16 20.27 20.30 20.31 20.41 20.45 20.49 20.58 20.68 20.70 20.61 20.84 20.85 21.06 21.08 21.13 21.23 21.34 21.44 21.56 21.72 21.94 22.01 22.13 22.46 22.55 22.75 22.89 23.16 23.30 23.42 23.73 23.77 23.98 24.26 24.40 24.52 24.63 24.91 24.92 25.07 25.07 25.23 25.20 25.18 25.16 25.27 25.14 25.10 25.12 24.98 24.90 24.89 24.67 24.64 24.49 24.48 24.43 24.19 24.14
18.20 18.30 18.29 18.31 18.33 18.44 18.63 18.56 18.63 18.63 18.65 18.77 18.81 18.83 18.87 18.96 19.07 18.99 19.14 19.15 19.25 19.24 19.30 19.23 19.38 19.46 19.39 19.53 19.58 19.53 19.64 19.73 19.72 19.81 19.84 19.96 19.96 20.01 20.04 20.04 20.14 20.08 20.29 20.34 20.41 20.37 20.43 20.53 20.60 20.56 20.77 20.85 20.91 21.04 21.03 21.16 21.25 21.31 21.45 21.60 21.77 21.91 21.98 22.16 22.35 22.46 22.69 22.87 22.97 23.24 23.44 23.65 23.74 23.94 24.05 24.37 24.52 24.68 24.77 24.87 24.96 25.10 25.11 25.19 25.14 25.15 25.07 25.11 25.10 25.01 24.90 24.84 24.77 24.74 24.57 24.54 24.43 24.24 24.19 24.20
18.20 18.13 18.28 18.32 18.43 18.44 18.48 18.65 18.63 18.62 18.64 18.77 18.83 18.78 18.86 18.93 19.05 18.97 19.11 19.08 19.13 19.16 19.33 19.26 19.39 19.46 19.43 19.43 19.60 19.62 19.65 19.77 19.72 19.77 19.82 19.84 19.99 19.97 19.99 20.08 20.16 20.21 20.24 20.34 20.29 20.41 20.47 20.50 20.61 20.67 20.73 20.73 20.94 20.99 21.00 21.09 21.26 21.29 21.43 21.54 21.81 21.87 21.99 22.16 22.25 22.48 22.62 22.86 23.02 23.30 23.44 23.62 23.80 23.87 24.13 24.36 24.43 24.61 24.78 24.88 24.87 24.95 25.03 25.02 25.05 25.13 25.01 25.10 25.07 25.03 24.97 24.77 24.75 24.50 24.52 24.46 24.36 24.29 24.28 24.20
18.12 18.17 18.28 18.29 18.27 18.41 18.41 18.49 18.59 18.57 18.73 18.66 18.80 18.77 18.81 19.06 18.95 19.07 19.10 19.06 19.19 19.19 19.25 19.24 19.38 19.47 19.45 19.45 19.50 19.66 19.72 19.67 19.71 19.83 19.77 19.91 19.89 19.89 20.05 20.06 20.10 20.24 20.24 20.31 20.37 20.25 20.40 20.44 20.61 20.70 20.66 20.72 20.82 20.96 21.10 20.97 21.24 21.35 21.41 21.54 21.69 21.80 22.03 22.01 22.25 22.48 22.59 22.90 22.97 23.23 23.26 23.54 23.67 23.91 24.02 24.25 24.32 24.49 24.59 24.73 24.81 24.87 24.94 25.02 24.98 25.01 25.01 25.02 25.02 24.85 24.81 24.71 24.64 24.47 24.42 24.42 24.32 24.28 24.21 24.18
18.16 18.27 18.30 18.35 18.37 18.39 18.39 18.48 18.48 18.57 18.69 18.63 18.78 18.87 18.90 18.93 19.02 18.96 19.08 19.10 19.12 19.25 19.26 19.31 19.34 19.33 19.42 19.42 19.55 19.53 19.51 19.72 19.68 19.83 19.71 19.84 19.91 19.99 20.03 20.07 20.11 20.11 20.17 20.18 20.28 20.32 20.43 20.49 20.59 20.68 20.71 20.81 20.82 20.92 21.00 21.14 21.14 21.29 21.32 21.48 21.66 21.73 21.90 22.12 22.18 22.36 22.54 22.67 22.84 23.11 23.32 23.36 23.53 23.85 24.12 24.16 24.24 24.41 24.43 24.66 24.70 24.75 24.86 24.89 25.03 24.92 24.80 24.89 24.86 24.73 24.80 24.60 24.64 24.47 24.39 24.36 24.18 24.16 24.08 23.96
18.06 18.23 18.23 18.33 18.31 18.37 18.38 18.60 18.55 18.59 18.60 18.55 18.69 18.81 18.73 18.89 18.95 18.93 18.96 19.04 19.18 19.17 19.18 19.29 19.31 19.46 19.37 19.48 19.52 19.50 19.70 19.64 19.81 19.65 19.76 19.92 19.82 19.97 20.08 20.09 20.15 20.03 20.19 20.26 20.25 20.27 20.38 20.42 20.61 20.58 20.62 20.80 20.91 21.00 20.94 21.01 21.25 21.28 21.34 21.34 21.55 21.67 21.84 22.01 22.11 22.30 22.45 22.63 22.88 23.04 23.21 23.35 23.45 23.63 23.77 24.05 24.14 24.37 24.41 24.47 24.51 24.67 24.64 24.81 24.75 24.71 24.75 24.71 24.68 24.68 24.70 24.49 24.57 24.54 24.38 24.22 24.13 24.12 24.00 23.93
18.11 18.24 18.32 18.28 18.33 18.38 18.44 18.40 18.47 18.58 18.54 18.69 18.78 18.84 18.81 18.91 18.90 19.03 19.03 19.01 19.02 19.15 19.26 19.27 19.16 19.30 19.38 19.44 19.54 19.57 19.58 19.65 19.57 19.66 19.79 19.82 19.85 19.89 19.94 20.06 20.06 20.14 20.17 20.18 20.23 20.32 20.39 20.48 20.53 20.62 20.60 20.70 20.83 20.88 20.96 21.01 21.18 21.11 21.27 21.46 21.57 21.60 21.85 21.98 22.07 22.31 22.44 22.53 22.84 22.90 23.09 23.25 23.37 23.66 23.71 23.81 24.05 24.17 24.23 24.29 24.52 24.56 24.51 24.61 24.69 24.70 24.60 24.66 24.64 24.57 24.54 24.44 24.43 24.26 24.25 24.15 24.06 24.01 23.91 23.89
18.06 18.18 18.20 18.21 18.38 18.33 18.37 18.48 18.56 18.53 18.61 18.66 18.76 18.70 18.78 18.83 18.85 18.89 18.96 19.09 19.03 19.08 19.17 19.19 19.19 19.39 19.37 19.32 19.42 19.58 19.53 19.62 19.67 19.73 19.76 19.76 19.86 20.01 19.94 20.03 20.03 20.09 20.22 20.18 20.23 20.29 20.34 20.51 20.42 20.53 20.61 20.67 20.69 20.82 20.99 20.99 21.08 21.24 21.31 21.32 21.55 21.68 21.67 21.97 22.09 22.18 22.38 22.49 22.68 22.88 23.02 23.17 23.30 23.51 23.60 23.74 23.96 24.00 24.20 24.17 24.29 24.36 24.56 24.40 24.49 24.49 24.46 24.59 24.46 24.49 24.39 24.29 24.29 24.32 24.14 23.99 24.01 23.99 23.84 23.87
18.04 18.13 18.18 18.20 18.27 18.37 18.31 18.45 18.38 18.54 18.57 18.55 18.71 18.81 18.77 18.80 18.83 18.98 18.97 19.01 19.11 19.20 19.13 19.25 19.26 19.36 19.33 19.34 19.37 19.49 19.52 19.57 19.65 19.62 19.83 19.80 19.90 19.88 19.98 20.07 20.06 20.17 20.17 20.18 20.23 20.24 20.31 20.45 20.50 20.50 20.69 20.58 20.74 20.79 20.88 20.95 21.10 21.11 21.25 21.40 21.46 21.53 21.75 21.95 21.90 22.06 22.31 22.33 22.51 22.75 22.95 23.10 23.21 23.42 23.54 23.56 23.75 23.88 23.97 24.15 24.18 24.28 24.35 24.35 24.35 24.31 24.40 24.46 24.37 24.28 24.27 24.12 24.13 24.20 24.04 23.84 23.94 23.92 23.80 23.78
18.07 18.18 18.18 18.23 18.34 18.34 18.44 18.39 18.50 18.54 18.57 18.57 18.65 18.75 18.79 18.82 18.94 18.83 18.95 18.89 19.11 19.06 19.16 19.20 19.27 19.26 19.38 19.39 19.42 19.50 19.59 19.61 19.71 19.59 19.72 19.73 19.83 19.83 19.87 19.94 20.02 20.12 20.12 20.12 20.24 20.28 20.26 20.38 20.42 20.43 20.56 20.68 20.73 20.74 20.87 20.95 21.04 21.03 21.22 21.30 21.42 21.57 21.64 21.79 21.93 22.05 22.14 22.32 22.46 22.67 22.71 22.87 23.10 23.23 23.36 23.56 23.63 23.74 23.81 24.00 23.97 23.99 24.16 24.15 24.24 24.19 24.25 24.20 24.12 24.21 24.07 24.12 24.02 24.07 23.96 23.86 23.88 23.78 23.74 23.64
18.08 18.09 18.07 18.20 18.22 18.42 18.32 18.36 18.41 18.52 18.61 18.62 18.68 18.68 18.75 18.79 18.90 18.88 18.89 19.02 19.06 19.14 19.15 19.26 19.26 19.28 19.37 19.47 19.44 19.44 19.44 19.56 19.66 19.66 19.75 19.78 19.77 19.83 19.91 19.93 20.06 19.99 20.05 20.10 20.26 20.20 20.34 20.33 20.45 20.58 20.55 20.57 20.64 20.75 20.86 20.89 20.98 21.05 21.16 21.32 21.44 21.51 21.59 21.72 21.82 21.95 22.15 22.25 22.48 22.56 22.64 22.86 23.05 23.09 23.23 23.39 23.54 23.62 23.79 23.72 23.87 23.83 23.99 24.02 24.11 24.15 24.07 24.05 24.04 24.08 24.01 23.95 24.01 23.82 23.82 23.79 23.66 23.71 23.65 23.60
18.09 18.09 18.15 18.20 18.33 18.31 18.40 18.41 18.44 18.46 18.52 18.57 18.66 18.67 18.68 18.75 18.76 18.94 18.90 19.03 19.01 19.05 19.14 19.10 19.30 19.23 19.44 19.36 19.39 19.52 19.52 19.61 19.54 19.65 19.69 19.74 19.84 19.87 19.89 19.98 19.95 19.97 20.10 20.20 20.14 20.16 20.41 20.39 20.45 20.46 20.55 20.69 20.61 20.79 20.71 20.97 21.05 21.02 21.07 21.22 21.26 21.44 21.60 21.65 21.77 21.95 22.09 22.18 22.37 22.43 22.64 22.75 22.91 22.96 23.05 23.24 23.38 23.49 23.52 23.55 23.62 23.76 23.81 23.89 23.87 23.95 23.99 23.92 23.97 23.90 23.86 23.87 23.79 23.68 23.65 23.72 23.57 23.62 23.51 23.49
18.05 18.04 18.11 18.18 18.24 18.21 18.36 18.36 18.40 18.50 18.57 18.50 18.66 18.64 18.70 18.74 18.83 18.87 18.94 18.97 19.01 19.05 19.09 19.09 19.23 19.25 19.37 19.32 19.42 19.44 19.54 19.60 19.62 19.65 19.67 19.71 19.81 19.83 19.95 19.92 19.96 19.94 20.03 20.12 20.25 20.23 20.28 20.28 20.43 20.46 20.59 20.49 20.60 20.59 20.71 20.88 20.87 20.96 21.17 21.16 21.37 21.46 21.43 21.62 21.72 21.82 21.94 22.12 22.21 22.34 22.50 22.60 22.71 22.82 23.00 22.99 23.18 23.27 23.40 23.49 23.57 23.62 23.63 23.77 23.74 23.84 23.74 23.84 23.69 23.78 23.67 23.71 23.64 23.61 23.64 23.56 23.56 23.61 23.50 23.42
18.04 18.12 17.99 18.15 18.16 18.25 18.22 18.43 18.50 18.52 18.50 18.59 18.61 18.58 18.77 18.76 18.76 18.74 18.90 18.86 18.93 19.03 19.07 19.11 19.21 19.21 19.24 19.35 19.36 19.46 19.47 19.49 19.59 19.58 19.58 19.68 19.84 19.80 19.80 19.89 20.04 20.10 19.99 20.09 20.15 20.24 20.31 20.35 20.40 20.45 20.63 20.57 20.69 20.64 20.76 20.86 20.93 21.00 21.04 21.11 21.29 21.34 21.43 21.46 21.61 21.75 21.91 22.05 22.08 22.20 22.28 22.46 22.59 22.73 22.74 22.92 23.05 23.03 23.24 23.31 23.37 23.43 23.54 23.48 23.52 23.53 23.62 23.62 23.60 23.57 23.59 23.57 23.50 23.56 23.50 23.40 23.43 23.49 23.43 23.37
